X: 4313
T: Miss Colston's    Strathspey
C: by Niel Gow
%R: strathspey
B: Niel Gow & Sons "A Fourth Collection of Strathspey Reels, etc." v.4 p.31 #3
Z: 2022 John Chambers <jc:trillian.mit.edu>
M: C
L: 1/8
K: G
% - - - - - - - - - -
V: 1 staves=2
c |\
(B/c/d) (.G.d) Bdgd | f>c d>B A/B/c/A/ F>c | .B.d.G.d Bdgd | .f(c e/c/).B/.A/ BGTG :| g | d>gbg d>gbg | f>ac>f AF A/B/c/A/ |
d>gbg d>gbg | d>g ^f/g/a/f/ gGTGg || d>gbg d>gbg | facf A>F A/B/c/A/ | (B/c/d) (.G.d) B>dgd | .f>(c d/c/).B/.A/ BGTG |]
% - - - - - - - - - -
% Voice 2 preserves the staff layout in the book.
V: 2 clef=bass middle=d
z | g2g2 g2g2 | f2f2 f2f2 | g2g2 g2g2 | d2d2 G2G :| z | g2g2 g2g2 | f2f2 f2f2 |
g2g2 g2g2 | d2d2 G2G2 || g2g2 g2g2 | f2f2 f2f2 | g2g2 g2g2 | d2d2 G2G |]
